src/images/logo.svg

<svg width="24" height="24" xmlns="http://www.w3.org/2000/svg" fill-rule="evenodd" clip-rule="evenodd"><path d="M8.625 0c.61 7.189-5.625 9.664-5.625 15.996 0 4.301 3.069 7.972 9 8.004 5.931.032 9-4.414 9-8.956 0-4.141-2.062-8.046-5.952-10.474.924 2.607-.306 4.988-1.501 5.808.07-3.337-1.125-8.289-4.922-10.378zm4.711 13c3.755 3.989 1.449 9-1.567 9-1.835 0-2.779-1.265-2.769-2.577.019-2.433 2.737-2.435 4.336-6.423z"/></svg>

<svg width="24" height="24" viewBox="0 0 24 24" fill="none" xmlns="http://www.w3.org/2000/svg">
<g clip-path="url(#clip0)">
<path fill-rule="evenodd" clip-rule="evenodd" d="M8.625 0C9.235 7.189 3 9.664 3 15.996C3 20.297 6.069 23.968 12 24C17.931 24.032 21 19.586 21 15.044C21 10.903 18.938 6.998 15.048 4.57C15.972 7.177 14.742 9.558 13.547 10.378C13.617 7.041 12.422 2.089 8.625 0ZM13.336 13C17.091 16.989 14.785 22 11.769 22C9.934 22 8.99 20.735 9 19.423C9.019 16.99 11.737 16.988 13.336 13V13Z" fill="#FF5A00"/>
</g>
<defs>
<clipPath id="clip0">
<rect width="24" height="24" fill="white"/>
</clipPath>
</defs>
</svg>
